X: 25288
T: Man Of The House, The
R: reel
M: 4/4
K: Adorian
A2 eA cdec|A2 eA BGdG|A2 eA cdef|gedB eAAG|
A2 eA cdec|A2 eA BGdG|A2 eA cdef|gedB eA A2||
ABcA BcdB|cBAG EGAG|ABcA BcdB|cBAG EA A2|
AB (3cBA BcdB|cBAG ABcd|ecdB cBAG|AGED EA A2||

